assets/svg/browse.svg

<svg fill="none" height="25" viewBox="0 0 25 25" width="25" xmlns="http://www.w3.org/2000/svg"><g stroke="#000" stroke-linecap="round" stroke-linejoin="round" stroke-width="2"><path d="m8.9 3.5h-3.8c-.56005 0-.84008 0-1.05399.10899-.18816.09588-.34114.24886-.43702.43702-.10899.21391-.10899.49394-.10899 1.05399v3.8c0 .56005 0 .84008.10899 1.05399.09588.18821.24886.34111.43702.43701.21391.109.49394.109 1.05399.109h3.8c.56005 0 .84008 0 1.05399-.109.18821-.0959.34111-.2488.43701-.43701.109-.21391.109-.49394.109-1.05399v-3.8c0-.56005 0-.84008-.109-1.05399-.0959-.18816-.2488-.34114-.43701-.43702-.21391-.10899-.49394-.10899-1.05399-.10899z"/><path d="m19.9 3.5h-3.8c-.5601 0-.8401 0-1.054.10899-.1882.09588-.3411.24886-.437.43702-.109.21391-.109.49394-.109 1.05399v3.8c0 .56005 0 .84008.109 1.05399.0959.18821.2488.34111.437.43701.2139.109.4939.109 1.054.109h3.8c.5601 0 .8401 0 1.054-.109.1882-.0959.3411-.2488.437-.43701.109-.21391.109-.49394.109-1.05399v-3.8c0-.56005 0-.84008-.109-1.05399-.0959-.18816-.2488-.34114-.437-.43702-.2139-.10899-.4939-.10899-1.054-.10899z"/><path d="m19.9 14.5h-3.8c-.5601 0-.8401 0-1.054.109-.1882.0959-.3411.2488-.437.437-.109.2139-.109.4939-.109 1.054v3.8c0 .5601 0 .8401.109 1.054.0959.1882.2488.3411.437.437.2139.109.4939.109 1.054.109h3.8c.5601 0 .8401 0 1.054-.109.1882-.0959.3411-.2488.437-.437.109-.2139.109-.4939.109-1.054v-3.8c0-.5601 0-.8401-.109-1.054-.0959-.1882-.2488-.3411-.437-.437-.2139-.109-.4939-.109-1.054-.109z"/><path d="m8.9 14.5h-3.8c-.56005 0-.84008 0-1.05399.109-.18816.0959-.34114.2488-.43702.437-.10899.2139-.10899.4939-.10899 1.054v3.8c0 .5601 0 .8401.10899 1.054.09588.1882.24886.3411.43702.437.21391.109.49394.109 1.05399.109h3.8c.56005 0 .84008 0 1.05399-.109.18821-.0959.34111-.2488.43701-.437.109-.2139.109-.4939.109-1.054v-3.8c0-.5601 0-.8401-.109-1.054-.0959-.1882-.2488-.3411-.43701-.437-.21391-.109-.49394-.109-1.05399-.109z"/></g></svg>

<svg width="25" height="25" viewBox="0 0 25 25" fill="none" xmlns="http://www.w3.org/2000/svg">
<path d="M8.9 3.5H5.1C4.53995 3.5 4.25992 3.5 4.04601 3.60899C3.85785 3.70487 3.70487 3.85785 3.60899 4.04601C3.5 4.25992 3.5 4.53995 3.5 5.1V8.9C3.5 9.46005 3.5 9.74008 3.60899 9.95399C3.70487 10.1422 3.85785 10.2951 4.04601 10.391C4.25992 10.5 4.53995 10.5 5.1 10.5H8.9C9.46005 10.5 9.74008 10.5 9.95399 10.391C10.1422 10.2951 10.2951 10.1422 10.391 9.95399C10.5 9.74008 10.5 9.46005 10.5 8.9V5.1C10.5 4.53995 10.5 4.25992 10.391 4.04601C10.2951 3.85785 10.1422 3.70487 9.95399 3.60899C9.74008 3.5 9.46005 3.5 8.9 3.5Z" stroke="black" stroke-width="2" stroke-linecap="round" stroke-linejoin="round"/>
<path d="M19.9 3.5H16.1C15.5399 3.5 15.2599 3.5 15.046 3.60899C14.8578 3.70487 14.7049 3.85785 14.609 4.04601C14.5 4.25992 14.5 4.53995 14.5 5.1V8.9C14.5 9.46005 14.5 9.74008 14.609 9.95399C14.7049 10.1422 14.8578 10.2951 15.046 10.391C15.2599 10.5 15.5399 10.5 16.1 10.5H19.9C20.4601 10.5 20.7401 10.5 20.954 10.391C21.1422 10.2951 21.2951 10.1422 21.391 9.95399C21.5 9.74008 21.5 9.46005 21.5 8.9V5.1C21.5 4.53995 21.5 4.25992 21.391 4.04601C21.2951 3.85785 21.1422 3.70487 20.954 3.60899C20.7401 3.5 20.4601 3.5 19.9 3.5Z" stroke="black" stroke-width="2" stroke-linecap="round" stroke-linejoin="round"/>
<path d="M19.9 14.5H16.1C15.5399 14.5 15.2599 14.5 15.046 14.609C14.8578 14.7049 14.7049 14.8578 14.609 15.046C14.5 15.2599 14.5 15.5399 14.5 16.1V19.9C14.5 20.4601 14.5 20.7401 14.609 20.954C14.7049 21.1422 14.8578 21.2951 15.046 21.391C15.2599 21.5 15.5399 21.5 16.1 21.5H19.9C20.4601 21.5 20.7401 21.5 20.954 21.391C21.1422 21.2951 21.2951 21.1422 21.391 20.954C21.5 20.7401 21.5 20.4601 21.5 19.9V16.1C21.5 15.5399 21.5 15.2599 21.391 15.046C21.2951 14.8578 21.1422 14.7049 20.954 14.609C20.7401 14.5 20.4601 14.5 19.9 14.5Z" stroke="black" stroke-width="2" stroke-linecap="round" stroke-linejoin="round"/>
<path d="M8.9 14.5H5.1C4.53995 14.5 4.25992 14.5 4.04601 14.609C3.85785 14.7049 3.70487 14.8578 3.60899 15.046C3.5 15.2599 3.5 15.5399 3.5 16.1V19.9C3.5 20.4601 3.5 20.7401 3.60899 20.954C3.70487 21.1422 3.85785 21.2951 4.04601 21.391C4.25992 21.5 4.53995 21.5 5.1 21.5H8.9C9.46005 21.5 9.74008 21.5 9.95399 21.391C10.1422 21.2951 10.2951 21.1422 10.391 20.954C10.5 20.7401 10.5 20.4601 10.5 19.9V16.1C10.5 15.5399 10.5 15.2599 10.391 15.046C10.2951 14.8578 10.1422 14.7049 9.95399 14.609C9.74008 14.5 9.46005 14.5 8.9 14.5Z" stroke="black" stroke-width="2" stroke-linecap="round" stroke-linejoin="round"/>
</svg>
